src/images/community/video.svg

<svg fill="none" height="30" viewBox="0 0 30 30" width="30" xmlns="http://www.w3.org/2000/svg"><path d="m16.3125 12.2375-3.8125-2.8625v11.25l3.8125-2.8625 3.6875-2.7625zm0 0-3.8125-2.8625v11.25l3.8125-2.8625 3.6875-2.7625zm0 0-3.8125-2.8625v11.25l3.8125-2.8625 3.6875-2.7625zm-2.5625-7.15v-2.525c-2.5125.25-4.8 1.25-6.65 2.7625l1.775 1.7875c1.4124-1.10264 3.097-1.80239 4.875-2.025zm-6.6375 3.7875-1.7875-1.775c-1.55648 1.89573-2.51762 4.2094-2.7625 6.65h2.525c.225-1.825.95-3.4875 2.025-4.875zm-2.025 7.375h-2.525c.25 2.5125 1.25 4.8 2.7625 6.65l1.7875-1.7875c-1.10455-1.4066-1.80466-3.0877-2.025-4.8625zm2.0125 8.425c1.89697 1.5544 4.21 2.5153 6.65 2.7625v-2.525c-1.778-.2226-3.4626-.9224-4.875-2.025zm20.4-9.675c0 6.45-4.9 11.775-11.1875 12.4375v-2.525c4.9-.65 8.6875-4.85 8.6875-9.9125s-3.7875-9.2625-8.6875-9.9125v-2.525c6.2875.6625 11.1875 5.9875 11.1875 12.4375z" fill="#000"/></svg>

<svg width="30" height="30" viewBox="0 0 30 30" fill="none" xmlns="http://www.w3.org/2000/svg">
<path d="M16.3125 12.2375L12.5 9.375V20.625L16.3125 17.7625L20 15L16.3125 12.2375ZM16.3125 12.2375L12.5 9.375V20.625L16.3125 17.7625L20 15L16.3125 12.2375ZM16.3125 12.2375L12.5 9.375V20.625L16.3125 17.7625L20 15L16.3125 12.2375ZM13.75 5.0875V2.5625C11.2375 2.8125 8.95 3.8125 7.1 5.325L8.875 7.1125C10.2874 6.00986 11.972 5.31011 13.75 5.0875ZM7.1125 8.875L5.325 7.1C3.76852 8.99573 2.80738 11.3094 2.5625 13.75H5.0875C5.3125 11.925 6.0375 10.2625 7.1125 8.875ZM5.0875 16.25H2.5625C2.8125 18.7625 3.8125 21.05 5.325 22.9L7.1125 21.1125C6.00795 19.7059 5.30784 18.0248 5.0875 16.25ZM7.1 24.675C8.99697 26.2294 11.31 27.1903 13.75 27.4375V24.9125C11.972 24.6899 10.2874 23.9901 8.875 22.8875L7.1 24.675ZM27.5 15C27.5 21.45 22.6 26.775 16.3125 27.4375V24.9125C21.2125 24.2625 25 20.0625 25 15C25 9.9375 21.2125 5.7375 16.3125 5.0875V2.5625C22.6 3.225 27.5 8.55 27.5 15Z" fill="black"/>
</svg>
